X:1
T:Wind of You
T:Wind of You
T:I remember you alive in me...
%%score { 1 2 }
L:1/8
Q:1/4=85
M:4/4
K:C
V:1 treble nm="Piano 1"
V:2 treble nm="Piano 2"
V:1
"^Marcia Moderato" z8 | z8 | z8 | z8 |!mp!"_cresc."!8va(! e'a'b'c'' f'a'b'c'' | g'a'd''c'' b'4 | %6
"_dim." e'a'b'c'' f'a'b'c'' | g'a'd''c'' b'4!8va)! |!mf! [E,A,][EA] [Ee]>[EA] [Ff]edc | %9
 [DGd]4 [E^GB]4 | z [EA] [Ee]>[EA] [Ff]edc | [DGBd]4 [D^GBe]2 [EGB]2 | %12
 z [cc']/[Bb]/ [cec']e/A/ [Fcf][Geg]dc | [DGBd]4 [E^GBe]4 | z [cc']/[Bb]/ [cec']e/A/ [Fcf][Geg]dc | %15
 [Bda]3 [Bda]/[d_e]/ [^Gd=e^g]2 [Beb]2 | z [CE] [EG]>[CG] [CFA][EG][DF][CE] | %17
 [DAd]4 [Bd^gb]2 [egbe']2 |!f! [A,E][EA]/[DB]/ [EAc]E [Cc]/[B,B]/ [CFAc]2 [DGc] | %19
 [DGc][DGc]3/2[DGc]3/2 [D^GB][Aa]/[Bb]/ [cc']/[Bb]/[Aa]/[G^g]/ | %20
 [Acea][cec']/[Bdb]/ [ceac']2 [cfc']/[Beb]/ [cfc']2 [dgbd']- | [dgbd']4 [d^gb]4 | %22
 z [Aca]/[Bdb]/ [ceac']2 [cfc']/[Beb]/ [cfc']2 [DGc] | %23
 [DGc][DGc]3/2[DGc]3/2 [E^GB][Ada]/[Bd^gb]/ [ceac']/[Bdgb]/[Aca]/[GBg]/ | %24
 [Aa][ceac']/[Bdb]/ [ceac']2 [cfac']/[Beb]/ [cfac']2 [dgbd']- | [dgbd']4 [d^gb]4 | %26
!mf! _A/G/=A<BA c/B/c<dc | e/d/e<ae d/c/B<cA/G/ | F2 F4 [FA]2 | [E^G]4- [EG]EAB | %30
 A/^G/A<BA c/B/c<dc | e/d/e<ab c'/b/c'/a/- a2- | a6 ba | ^g6 fe |!8va(! e'a'b'c'' f'a'b'c'' | %35
 g'a'd''c'' b'4 | e'a'b'c'' f'a'b'c'' | g'a'd''c'' b'4 | e'a'b'c'' f'a'b'c'' | g'a'd''c'' b'4 | %40
 e'a'b'c'' f'a'b'c'' | g'a'd''c'' b'4!8va)! |!f! [A,E][EA]/[DB]/ [EAc]E [Cc]/[B,B]/ [CFAc]2 [DGc] | %43
 [DGc][DGc]3/2[DGc]3/2 [D^GB][Aa]/[Bb]/ [cc']/[Bb]/[Aa]/[G^g]/ | %44
 [Acea][cec']/[Bdb]/ [ceac']2 [cfc']/[Beb]/ [cfc']2 [dgbd']- | [dgbd']4 [d^gb]4 | %46
 z [Aca]/[Bdb]/ [ceac']2 [cfc']/[Beb]/ [cfc']2 [DGc] | %47
 [DGc][DGc]3/2[DGc]3/2 [E^GB][Ada]/[Bd^gb]/ [ceac']/[Bdgb]/"_dim."[Acfa]/[GBeg]/ | %48
 [Aa][ceac']/[Bdgb]/ [ceac']2 [cfac']/[Beb]/ [ceac']2 [d-gbd'] | [dfgd']8 |] %50
V:2
!p!"_cresc." ee e>e f/f/f f>f | dd d>d B/B/B B>B | ee e>e f/f/f f>f | dd d>d B/B/B B>B | %4
 ee e>e f/f/f f>f | dd d>d B/B/B B>B |"_dim." ee e>e f/f/f f>f | dd d>d B4 | %8
[K:bass]!mp! [A,,,A,,]A,,[A,,E,A,]3/2A,,C,/F,, [C,F,]>F,, | %9
 [G,,,G,,]G,,[G,,D,G,]3/2G,,[B,,E,]/E,, [B,,E,G,]>B,, | %10
 [A,,,A,,]A,,[A,,E,A,]3/2A,,C,/F,, [C,F,]>F,, | %11
 [G,,,G,,]G,,[G,,D,G,]3/2G,,[B,,E,]/E,, [B,,E,^G,]>B,, | %12
 [A,,,A,,]A,,[A,,E,A,]3/2A,,C,/F,, [C,F,]>F,, | %13
 [G,,,G,,]G,,[G,,D,G,]3/2G,,[B,,E,]/E,, [B,,E,G,]>B,, | %14
 [A,,,A,,]A,,[A,,E,A,]3/2A,,C,/F,, [C,F,]>F,, | %15
 [G,,,G,,]G,,[G,,D,G,]3/2G,,[D,E,]/^G,, [E,^G,B,]>B,, | A,,2 [E,A,]3/2A,,C,/F,, [C,F,]>F,, | %17
 [G,,D,]G,,[D,G,]3/2G,,[B,,E,]/E,,/B,,/ E,,/^G,,/E,,/^G,,,/ | %18
!mf! [A,,,A,,]A,, [C,E,A,]>A,, F,,/[A,,C,F,]/F,, [F,,C,F,][G,,D,G,]- | %19
 [G,,D,G,]G,,,[G,,D,]3/2D,[D,^G,]/^G,, [C,E,C][B,,E,B,] | %20
 [A,,,A,,]A,, [C,E,A,]>A,, F,,/[A,,C,F,]/F,, [F,,C,F,][G,,D,G,]- | %21
 [G,,D,G,]G,,, [G,,D,]G,,/D,/ E,,/[^G,,E,]/E,,/B,,/ E,,/[G,,E,]/E,,/B,,/ | %22
 [A,,,A,,]A,, [C,E,A,]>A,, F,,/[A,,C,F,]/F,, [F,,C,F,][G,,D,G,]- | %23
 [G,,D,G,]G,,,[G,,D,]3/2D,[D,^G,]/^G,, [C,E,C][B,,E,B,] | %24
 [A,,,A,,]A,, [C,E,A,]>A,, F,,/[A,,C,F,]/F,, [C,F,][G,,D,G,]- | %25
 [G,,D,G,]G,,,[G,,D,]3/2D,[B,,E,]/E,, [B,,E,]/E,,E,,/ | [A,CE]4 [^G,CE]4 | [G,CE]4 [^F,C^F]4 | %28
 [F,C]6 A,2 | [^G,B,]4- [G,B,] [G,B,D]3 | [A,CE]4 [^G,CE]4 | [G,CE]4 [^F,A,D^F]4 | [F,A,CF]8 | %33
 [^G,B,D]8 | [E,A,CE]4 [F,CF]4 | [G,DG]4 [E,B,E]4 | [E,A,C]4 [F,CF]4 | %37
[K:treble] [G,DB]4 [E,B,E]2 e2 | [A,CEA]2 e>A [F,CF] f2 d | [G,DG]4 [E,B,E]4 | %40
 [E,A,C]A e>A [F,CF] f2 d | [G,DG]4[K:bass] [E,^G,B,E]4 | %42
!f! [A,,,A,,]A,, [C,E,A,]>A,, F,,/[A,,C,F,]/F,, [F,,C,F,][G,,D,G,]- | %43
 [G,,D,G,]G,,, [G,,D,]>D, D,/[D,^G,]/^G,, [C,E,C][B,,E,B,] | %44
 [A,,,A,,]A,, [C,E,A,]>A,, F,,/[A,,C,F,]/F,, [F,,C,F,][G,,D,G,]- | %45
 [G,,D,G,]G,,, [G,,D,]G,,/D,/ E,,/[^G,,E,]/E,,/B,,/ E,,/[G,,E,]/E,,/B,,/ | %46
 [A,,,A,,]A,, [C,E,A,]>A,, F,,/[A,,C,F,]/F,, [F,,C,F,][G,,D,G,]- | %47
 [G,,D,G,]G,,,[G,,D,]3/2D,[D,^G,]/^G,, [C,E,C]"_dim."[B,,E,B,] | %48
 [A,,,A,,]A,, [C,E,A,]>A,, F,,/[A,,C,F,]/F,, [C,F,][G,,D,G,]- | [G,,D,G,]G,,, [G,,D,]6 |] %50

